www/assets/icons/text_rotation_down.svg

<svg xmlns="http://www.w3.org/2000/svg" width="24" height="24" viewBox="0 0 24 24" fill='currentColor'><path d="M21 12v-1.5L10 5.75v2.1l2.2.9v5l-2.2.9v2.1zm-7-2.62 5.02 1.87L14 13.12zM6 19.75l3-3H7V4.25H5v12.5H3z"/></svg>

<svg width="24" height="24" viewBox="0 0 24 24" xmlns="http://www.w3.org/2000/svg" fill='currentColor'><path d="M21 12V10.5L10 5.75V7.85L12.2 8.75V13.75L10 14.65V16.75L21 12ZM14 9.38L19.02 11.25L14 13.12V9.38ZM6 19.75L9 16.75H7V4.25H5V16.75H3L6 19.75Z"/></svg>
